X: 1
T: Listowel, The
M: 2/4
L: 1/8
R: polka
K: Amin
A>B cd|eA Ac|B/A/G d>c|B/A/G G2|
A>B cd|eA A>B|cA B/A/G|1A2 AG:|2A2 A>B||
ce Ge|ce g/e/d/c/|Bd GA|Bc d>B|
ce A>B|cd e>d|cA B/A/G|1A2 A>B:|2A2 AG||
